X:677
L:1/8
Q:1/8=180
M:4/4
K:Bmin
 A | D2 DE F2 ED | B2 Bc defd | A2 AF Afec | dBcA BAFE | D2 DE F2 GA | BEFG AFAc | defe dcBA | 
 FBAc B3 :| z | defd ecAc | dfed cBAc | Bddf efge | dBcA BAFE | FBBA BdcB | cAEA cedc | dgfe dcBA | 
 FBAc B3 :|

